humanity-icon-theme/Humanity-Dark/places/16/start-here.svg

<?xml version="1.0" encoding="UTF-8" standalone="no"?>
<!-- Created with Inkscape (http://www.inkscape.org/) -->

<svg
   xmlns:svg="http://www.w3.org/2000/svg"
   xmlns="http://www.w3.org/2000/svg"
   xmlns:xlink="http://www.w3.org/1999/xlink"
   version="1.0"
   width="16"
   height="16"
   id="svg11300">
  <defs
     id="defs3">
    <linearGradient
       id="linearGradient7012-661-145-733-759-865-745-661-970-94">
      <stop
         id="stop3618"
         style="stop-color:#f0c178;stop-opacity:1"
         offset="0" />
      <stop
         id="stop3270"
         style="stop-color:#e18941;stop-opacity:1"
         offset="0.5" />
      <stop
         id="stop3620"
         style="stop-color:#ec4f18;stop-opacity:1"
         offset="1" />
    </linearGradient>
    <linearGradient
       id="linearGradient3390-178-986-453">
      <stop
         id="stop3624"
         style="stop-color:#bb2b12;stop-opacity:1"
         offset="0" />
      <stop
         id="stop3626"
         style="stop-color:#cd7233;stop-opacity:1"
         offset="1" />
    </linearGradient>
    <linearGradient
       x1="9.2880535"
       y1="21.81378"
       x2="9.2260742"
       y2="-0.0010448698"
       id="linearGradient3658"
       xlink:href="#linearGradient3390-178-986-453"
       gradientUnits="userSpaceOnUse" />
    <radialGradient
       cx="7.2057137"
       cy="3.5557227"
       r="5.0783086"
       fx="7.2057137"
       fy="3.5557227"
       id="radialGradient3660"
       xlink:href="#linearGradient7012-661-145-733-759-865-745-661-970-94"
       gradientUnits="userSpaceOnUse"
       gradientTransform="matrix(3.5382217e-7,3.1510668,-3.2969489,9.751441e-8,17.192426,-22.70673)" />
  </defs>
  <g
     id="g6435">
    <path
       d="M 13.0625,8.5 C 12.815778,10.471781 11.132047,12 9.09375,12 8.6813046,12 8.2806951,11.928589 7.90625,11.8125 l -1.625,2.0625 C 7.1116404,14.262098 8.0231857,14.5 9,14.5 c 0.5276322,0 1.03996,-0.06866 1.53125,-0.1875 C 10.632225,12.747698 11.909831,11.5 13.5,11.5 c 0.300142,0 0.570252,0.07409 0.84375,0.15625 C 14.970117,10.742671 15.343243,9.6649559 15.4375,8.5 l -2.375,0 z M 5.4375,2.5625 C 4.5004529,3.1781673 3.7351369,4.0302147 3.21875,5.03125 3.9962873,5.5734854 4.5,6.4808581 4.5,7.5 c 1e-7,1.1581118 -0.6633145,2.156333 -1.625,2.65625 0.3542035,1.004748 0.9547276,1.914445 1.71875,2.625 L 6.1875,10.71875 C 5.5188655,10.003713 5.09375,9.055439 5.09375,8 5.0937499,6.7224657 5.7229438,5.607462 6.65625,4.875 L 5.4375,2.5625 z M 9,1.5 C 8.3946561,1.5 7.8061916,1.5632526 7.25,1.71875 L 8.46875,4.0625 C 8.6717991,4.0306974 8.8818189,4 9.09375,4 c 1.680113,1e-7 3.126631,1.0310725 3.71875,2.5 l 2.46875,0 C 15.087971,5.7222634 14.785021,4.9873597 14.34375,4.34375 14.070252,4.4259078 13.800142,4.5 13.5,4.5 11.909831,4.4999999 10.632225,3.2523014 10.53125,1.6875 10.03996,1.5686563 9.5276322,1.5 9,1.5 z m 5.500228,0 a 1.0002287,1.0002287 0 1 1 -2.000457,0 1.0002287,1.0002287 0 1 1 2.000457,0 z m 0,13 a 1.0002287,1.0002284 0 1 1 -2.000457,0 1.0002287,1.0002284 0 1 1 2.000457,0 z M 2.5001522,7.4999999 a 1.0001523,1.0001523 0 1 1 -2.00030452,0 1.0001523,1.0001523 0 1 1 2.00030452,0 z"
       id="path3683"
       style="opacity:0.15;fill:none;stroke:#000000;stroke-width:2;stroke-linecap:square;stroke-linejoin:round;stroke-miterlimit:4;stroke-opacity:1;stroke-dasharray:none" />
    <path
       d="M 13.0625,8.5 C 12.815778,10.471781 11.132047,12 9.09375,12 8.6813046,12 8.2806951,11.928589 7.90625,11.8125 l -1.625,2.0625 C 7.1116404,14.262098 8.0231857,14.5 9,14.5 c 0.5276322,0 1.03996,-0.06866 1.53125,-0.1875 C 10.632225,12.747698 11.909831,11.5 13.5,11.5 c 0.300142,0 0.570252,0.07409 0.84375,0.15625 C 14.970117,10.742671 15.343243,9.6649559 15.4375,8.5 l -2.375,0 z M 5.4375,2.5625 C 4.5004529,3.1781673 3.7351369,4.0302147 3.21875,5.03125 3.9962873,5.5734854 4.5,6.4808581 4.5,7.5 c 1e-7,1.1581118 -0.6633145,2.156333 -1.625,2.65625 0.3542035,1.004748 0.9547276,1.914445 1.71875,2.625 L 6.1875,10.71875 C 5.5188655,10.003713 5.09375,9.055439 5.09375,8 5.0937499,6.7224657 5.7229438,5.607462 6.65625,4.875 L 5.4375,2.5625 z M 9,1.5 C 8.3946561,1.5 7.8061916,1.5632526 7.25,1.71875 L 8.46875,4.0625 C 8.6717991,4.0306974 8.8818189,4 9.09375,4 c 1.680113,1e-7 3.126631,1.0310725 3.71875,2.5 l 2.46875,0 C 15.087971,5.7222634 14.785021,4.9873597 14.34375,4.34375 14.070252,4.4259078 13.800142,4.5 13.5,4.5 11.909831,4.4999999 10.632225,3.2523014 10.53125,1.6875 10.03996,1.5686563 9.5276322,1.5 9,1.5 z m 5.500228,0 a 1.0002287,1.0002287 0 1 1 -2.000457,0 1.0002287,1.0002287 0 1 1 2.000457,0 z m 0,13 a 1.0002287,1.0002284 0 1 1 -2.000457,0 1.0002287,1.0002284 0 1 1 2.000457,0 z M 2.5001522,7.4999999 a 1.0001523,1.0001523 0 1 1 -2.00030452,0 1.0001523,1.0001523 0 1 1 2.00030452,0 z"
       id="path5551"
       style="fill:url(#radialGradient3660);fill-opacity:1;stroke:url(#linearGradient3658);stroke-width:1.00036728;stroke-linecap:square;stroke-linejoin:round;stroke-miterlimit:4;stroke-opacity:1;stroke-dasharray:none" />
  </g>
</svg>

<?xml version="1.0" encoding="UTF-8" standalone="no"?>
<!-- Created with Inkscape (http://www.inkscape.org/) -->
<svg id="svg11300" xmlns="http://www.w3.org/2000/svg" height="16" width="16" version="1.0" xmlns:xlink="http://www.w3.org/1999/xlink">
 <defs id="defs3">
  <linearGradient id="linearGradient3658" y2="-.0010449" gradientUnits="userSpaceOnUse" x2="9.2261" y1="21.814" x1="9.2881">
   <stop id="stop3624" style="stop-color:#bb2b12" offset="0"/>
   <stop id="stop3626" style="stop-color:#cd7233" offset="1"/>
  </linearGradient>
  <radialGradient id="radialGradient3660" gradientUnits="userSpaceOnUse" cy="3.5557" cx="7.2057" gradientTransform="matrix(3.5382e-7 3.1511 -3.2969 9.7514e-8 17.192 -22.707)" r="5.0783">
   <stop id="stop3618" style="stop-color:#f0c178" offset="0"/>
   <stop id="stop3270" style="stop-color:#e18941" offset=".5"/>
   <stop id="stop3620" style="stop-color:#ec4f18" offset="1"/>
  </radialGradient>
 </defs>
 <g id="g6435">
  <path id="path3683" style="opacity:.15;stroke-linejoin:round;stroke:#000;stroke-linecap:square;stroke-width:2;fill:none" d="m13.062 8.5c-0.246 1.972-1.93 3.5-3.9682 3.5-0.4125 0-0.8131-0.071-1.1876-0.188l-1.625 2.0625c0.8304 0.388 1.742 0.626 2.7188 0.626 0.52763 0 1.04-0.06866 1.5312-0.1875 0.101-1.564 1.379-2.812 2.969-2.812 0.30014 0 0.57025 0.07409 0.84375 0.15625 0.626-0.913 0.999-1.991 1.094-3.156h-2.375zm-7.6245-5.9375c-0.937 0.6157-1.7024 1.4677-2.2187 2.4687 0.7775 0.5423 1.2812 1.4497 1.2812 2.4688 1e-7 1.1581-0.66331 2.1563-1.625 2.6562 0.3542 1.0047 0.95473 1.9144 1.7188 2.625l1.5937-2.062c-0.6686-0.715-1.0937-1.6636-1.0937-2.719-0.0001-1.2775 0.6291-2.3925 1.5624-3.125l-1.2187-2.3125zm3.5625-1.0625c-0.6053 0-1.1938 0.0633-1.75 0.2188l1.2188 2.3437c0.203-0.0318 0.413-0.0625 0.625-0.0625 1.6801 1e-7 3.1266 1.0311 3.7188 2.5h2.4688c-0.194-0.7777-0.497-1.5126-0.938-2.1562-0.274 0.0821-0.544 0.1562-0.844 0.1562-1.59 0-2.868-1.2477-2.969-2.8125-0.491-0.1188-1.0034-0.1875-1.531-0.1875zm5.5002 0a1.0002 1.0002 0 1 1 -2.0005 0 1.0002 1.0002 0 1 1 2.0005 0zm0 13a1.0002 1.0002 0 1 1 -2.0005 0 1.0002 1.0002 0 1 1 2.0005 0zm-12-7a1.0002 1.0002 0 1 1 -2.0003 0 1.0002 1.0002 0 1 1 2.0003 0z"/>
  <path id="path5551" style="stroke-linejoin:round;stroke:url(#linearGradient3658);stroke-linecap:square;stroke-width:1.0004;fill:url(#radialGradient3660)" d="m13.062 8.5c-0.246 1.972-1.93 3.5-3.9682 3.5-0.4125 0-0.8131-0.071-1.1876-0.188l-1.625 2.0625c0.8304 0.388 1.742 0.626 2.7188 0.626 0.52763 0 1.04-0.06866 1.5312-0.1875 0.101-1.564 1.379-2.812 2.969-2.812 0.30014 0 0.57025 0.07409 0.84375 0.15625 0.626-0.913 0.999-1.991 1.094-3.156h-2.375zm-7.6245-5.9375c-0.937 0.6157-1.7024 1.4677-2.2187 2.4687 0.7775 0.5423 1.2812 1.4497 1.2812 2.4688 1e-7 1.1581-0.66331 2.1563-1.625 2.6562 0.3542 1.0047 0.95473 1.9144 1.7188 2.625l1.5937-2.062c-0.6686-0.715-1.0937-1.6636-1.0937-2.719-0.0001-1.2775 0.6291-2.3925 1.5624-3.125l-1.2187-2.3125zm3.5625-1.0625c-0.6053 0-1.1938 0.0633-1.75 0.2188l1.2188 2.3437c0.203-0.0318 0.413-0.0625 0.625-0.0625 1.6801 1e-7 3.1266 1.0311 3.7188 2.5h2.4688c-0.194-0.7777-0.497-1.5126-0.938-2.1562-0.274 0.0821-0.544 0.1562-0.844 0.1562-1.59 0-2.868-1.2477-2.969-2.8125-0.491-0.1188-1.0034-0.1875-1.531-0.1875zm5.5002 0a1.0002 1.0002 0 1 1 -2.0005 0 1.0002 1.0002 0 1 1 2.0005 0zm0 13a1.0002 1.0002 0 1 1 -2.0005 0 1.0002 1.0002 0 1 1 2.0005 0zm-12-7a1.0002 1.0002 0 1 1 -2.0003 0 1.0002 1.0002 0 1 1 2.0003 0z"/>
 </g>
</svg>
